Sources/FrostedUI/Resources/Icons.xcassets/dollarCircleFilled20.imageset/dollar-circle-filled-20.svg

<svg width="20" height="20" viewBox="0 0 20 20" fill="none" xmlns="http://www.w3.org/2000/svg" data-fui-icon="true">
  <path
    d="M10 0C15.5228 0 20 4.47715 20 10C20 15.5228 15.5228 20 10 20C4.47715 20 0 15.5228 0 10C0 4.47715 4.47715 0 10 0ZM10.0068 3.75C9.59285 3.75027 9.25684 4.08595 9.25684 4.5V4.96191C7.35693 5.23735 6.26572 6.54673 6.26562 7.84082C6.26568 8.3688 6.38787 8.83638 6.6377 9.2334C6.88542 9.62697 7.22822 9.90318 7.59082 10.1016C8.09088 10.375 8.69273 10.5293 9.25684 10.6436V13.5605C8.79281 13.4628 8.47821 13.2833 8.26367 13.0996C7.93618 12.8191 7.7799 12.4843 7.71289 12.2803C7.58367 11.8868 7.15915 11.6726 6.76562 11.8018C6.37271 11.9312 6.15823 12.3549 6.28711 12.748C6.41192 13.1282 6.69335 13.73 7.28809 14.2393C7.76451 14.6471 8.40908 14.9646 9.25684 15.084V15.5C9.25684 15.914 9.59285 16.2497 10.0068 16.25C10.421 16.25 10.7568 15.9142 10.7568 15.5V15.082C12.6579 14.8072 13.7476 13.499 13.748 12.2051C13.748 11.6771 13.6257 11.2095 13.376 10.8125C13.1282 10.4188 12.7855 10.1427 12.4229 9.94434C11.9226 9.67076 11.3211 9.51467 10.7568 9.40039V6.47852C11.9057 6.70418 12.2199 7.42585 12.2646 7.63379C12.3514 8.03853 12.7505 8.29731 13.1553 8.21094C13.5601 8.12418 13.8179 7.72516 13.7314 7.32031C13.5552 6.49687 12.7129 5.22092 10.7568 4.95801V4.5C10.7568 4.08579 10.421 3.75 10.0068 3.75ZM10.7568 10.9385C11.133 11.0253 11.4494 11.122 11.7031 11.2607C11.9013 11.3691 12.027 11.4852 12.1064 11.6113C12.1836 11.7341 12.248 11.9153 12.248 12.2051C12.2475 12.5715 11.8934 13.3258 10.7568 13.5615V10.9385ZM9.25684 9.10547C8.88102 9.01871 8.56405 8.9238 8.31055 8.78516C8.11255 8.67682 7.98663 8.56066 7.90723 8.43457C7.83002 8.31187 7.76568 8.13058 7.76562 7.84082C7.76574 7.47532 8.12042 6.71976 9.25684 6.4834V9.10547Z"
    fill="currentColor"
  />
</svg>

<svg xmlns="http://www.w3.org/2000/svg" width="20" height="20" fill="none" data-fui-icon="true" viewBox="0 0 20 20"><path fill="currentColor" d="M10 0c5.523 0 10 4.477 10 10s-4.477 10-10 10S0 15.523 0 10 4.477 0 10 0m.007 3.75a.75.75 0 0 0-.75.75v.462c-1.9.275-2.991 1.585-2.991 2.879 0 .528.122.995.372 1.392.247.394.59.67.953.869.5.273 1.102.427 1.666.542v2.916c-.464-.097-.779-.277-.993-.46a1.86 1.86 0 0 1-.551-.82.75.75 0 0 0-1.426.468c.125.38.406.982 1.001 1.491.477.408 1.121.726 1.969.845v.416a.75.75 0 0 0 1.5 0v-.418c1.9-.275 2.99-1.583 2.991-2.877 0-.528-.122-.995-.372-1.392a2.54 2.54 0 0 0-.953-.869c-.5-.273-1.102-.43-1.666-.544V6.48c1.149.225 1.463.947 1.508 1.155a.75.75 0 1 0 1.467-.313c-.177-.824-1.02-2.1-2.975-2.363V4.5a.75.75 0 0 0-.75-.75m.75 7.188c.376.087.692.184.946.323.198.108.324.224.403.35.078.123.142.304.142.594 0 .367-.355 1.12-1.491 1.357zm-1.5-1.833c-.376-.086-.693-.181-.946-.32a1.05 1.05 0 0 1-.404-.35c-.077-.123-.141-.304-.141-.594 0-.366.354-1.121 1.49-1.358z"/></svg>
